images/gen-slider/2.svg

<svg width="226" height="55" viewBox="0 0 226 55" fill="none" xmlns="http://www.w3.org/2000/svg">
<path d="M0.737164 55L0.737164 12.592H16.3552L29.8642 41.32L43.7722 12.592H58.4212L58.4212 55H46.9642L46.9642 27.241L34.0822 55H24.9052L12.0232 27.241L12.0232 55H0.737164ZM98.5086 38.413L90.8136 21.142L83.3466 38.413H98.5086ZM105.919 55L102.442 47.134H79.5276L76.1076 55H64.3086L83.1186 12.592H98.8506L118.516 55H105.919ZM85.1136 9.115L79.0716 0.678996H91.7256L96.9126 9.115H85.1136ZM156.515 55L136.109 35.05V55L124.367 55V12.592H136.109V30.034L155.945 12.592H170.879L148.535 32.029L171.848 55H156.515ZM213.507 55V26.5L188.712 55H176.97V12.592H188.712V41.092L213.507 12.592H225.249V55L213.507 55Z" fill="white"/>
</svg>

<svg width="226" height="55" fill="none" xmlns="http://www.w3.org/2000/svg"><path d="M.737 55V12.592h15.618l13.51 28.728 13.907-28.728h14.65V55H46.963V27.241L34.082 55h-9.177L12.023 27.241V55H.737zM98.51 38.413l-7.695-17.271-7.467 17.271H98.51zM105.919 55l-3.477-7.866H79.528L76.108 55h-11.8l18.81-42.408h15.733L118.516 55h-12.597zM85.114 9.115L79.072.679h12.654l5.187 8.436h-11.8zM156.515 55l-20.406-19.95V55h-11.742V12.592h11.742v17.442l19.836-17.442h14.934l-22.344 19.437L171.848 55h-15.333zm56.992 0V26.5L188.712 55H176.97V12.592h11.742v28.5l24.795-28.5h11.742V55h-11.742z" fill="#fff"/></svg>
